img/websockets.svg

<?xml version="1.0" encoding="UTF-8"?>
<svg width="256px" height="256px" viewBox="0 0 256 256" version="1.1" xmlns="http://www.w3.org/2000/svg" xmlns:xlink="http://www.w3.org/1999/xlink">
    <!-- Generator: Sketch 39 (31667) - http://www.bohemiancoding.com/sketch -->
    <title>WebSockets</title>
    <desc>Created with Sketch.</desc>
    <defs></defs>
    <g id="Page-1" stroke="none" stroke-width="1" fill="none" fill-rule="evenodd">
        <g id="WebSockets" fill="#000000">
            <path d="M81.9624453,206.62785 L64.1496212,188.809583 L75.219377,177.731235 C81.3077397,171.638144 86.2891347,166.424901 86.2891347,166.146257 C86.2891347,165.867613 73.9175978,153.269661 58.7968291,138.150848 L31.3045235,110.662068 L31.3045235,95.2595264 L31.3045235,79.8569768 L47.3417028,79.8569768 L63.378882,79.8569768 L63.378882,88.8980385 L63.378882,97.9391061 L74.7108825,109.262706 C80.9434787,115.490689 86.271417,120.586313 86.5507401,120.586313 C86.8300612,120.586313 94.6160897,113.026216 103.853032,103.786091 L120.647469,86.9858699 L108.945462,75.2755573 L97.2434503,63.5652387 L64.3981853,63.5652387 L31.5529223,63.5652387 L15.7764621,47.7826203 L0,32 L55.4924186,32 L110.984829,32 L138.47015,59.4888441 L165.955457,86.9776862 L160.366963,92.5835555 L154.778489,98.1894288 L165.590626,109.010371 L176.402804,119.831318 L176.402804,142.480477 L176.402804,165.129646 L154.256537,142.987767 L132.110269,120.845897 L126.384911,126.571266 L120.659543,132.29663 L142.801414,154.442895 L164.9433,176.589162 L142.294141,176.589162 L119.644962,176.589162 L108.824019,165.776983 L98.0030741,154.964833 L92.3980832,160.552425 L86.7931002,166.140033 L100.156388,179.510477 L113.519678,192.880904 L169.020091,192.880904 L224.520514,192.880904 L240.296942,208.663523 L256.07341,224.446143 L177.924346,224.446143 L99.7752754,224.446143 L81.9624493,206.62785 L81.9624453,206.62785 Z M192.694542,145.154737 L192.694542,113.720306 L179.332752,100.35137 L165.970952,86.9824363 L177.295621,75.6577572 L188.62032,64.333074 L206.440043,82.147354 L224.259787,99.961632 L224.259787,138.275392 L224.259787,176.589162 L208.477144,176.589162 L192.694542,176.589162 L192.694542,145.154737 L192.694542,145.154737 Z" id="path6791"></path>
        </g>
    </g>
</svg>

<svg width="256" height="256" viewBox="0 0 256 256" xmlns="http://www.w3.org/2000/svg"><title>WebSockets</title><path d="M81.962 206.628L64.15 188.81l11.07-11.08c6.088-6.092 11.07-11.305 11.07-11.584 0-.278-12.372-12.876-27.493-27.995l-27.492-27.488V79.857H63.38V97.94l11.33 11.323c6.233 6.228 11.56 11.323 11.84 11.323.28 0 8.066-7.56 17.303-16.8l16.794-16.8-11.702-11.71-11.702-11.71h-65.69L15.776 47.782 0 32h110.985l27.485 27.49 27.485 27.488-5.588 5.606-5.59 5.605 10.814 10.82 10.813 10.82v45.3l-22.146-22.142-22.147-22.142-5.725 5.725-5.725 5.727 22.14 22.146 22.143 22.146h-45.298l-10.82-10.813-10.822-10.812-5.605 5.587-5.605 5.588 13.363 13.37 13.364 13.37h111l15.777 15.784 15.776 15.782H99.775l-17.813-17.818zm110.733-61.473V113.72l-13.362-13.37-13.362-13.368 11.326-11.324 11.324-11.325 17.82 17.814 17.82 17.815V176.59H192.695v-31.435z" fill="#000" fill-rule="evenodd"/></svg>
